!!!COM: Robert Schumann
!!!CNT: Deutscher
!!!TXO: Deutsche 
!!!OTL: Im wunderscho2nen Monat Mai
!!!OPR: Dichterliebe
!!!OPS: Opus 48
!!!ONM: No. 1
!!!LYR: Heine
!!!ENC: Brian Bice
!!!YOR: Sa2mtliche Lieder, vol. 1, C.F. Peters
!!!ODT: 1840/
!!NB: Vocal melody and text only encoded.
**kern	**silbe
*clefG2	*
*k[f#c#g#]	*
*M2/4	*
=4	=4
4r	.
8r	.
16r	.
{16cc#	{Im
=5	=5
8.cc#	wun-
16b	-der-
16b	-scho2-
16dd	-nen
16f#	Mo-
16g#	-nat
=6	=6
4a}	Mai,}
8r	.
16r	.
{16cc#	{als
=7	=7
8.cc#	al-
16b	-le
(16b	Knos-
16dd	|
16f#)	|
16g#	-pen
=8	=8
8a	spran-
8a}	-gen,}
8r	.
16r	.
{16a	{da
=9	=9
8.b	ist
16b	in
8.cc#	mei-
16cc#	-nem
=10	=10
8ee	Her-
8dd}	-zen}
8r	.
16r	.
{16dd	{die
=11	=11
8.dd	Lie-
16dd	-be
8.ee	auf-
16ee	-ge-
=12	=12
8ggn	-gan-
8ff#}	-gen.}
4r	.
=15	=15
4r	.
8r	.
16r	.
{16cc#	{Im
=16	=16
8.cc#	wun-
16b	-der-
16b	-scho2-
16dd	-nen
16f#	Mo-
16g#	-nat
=17	=17
4a}	Mai,}
8r	.
16r	.
{16cc#	{als
=18	=18
8.cc#	al-
16b	-le
(16b	Vo2-
16dd	|
16f#)	|
16g#	-gel
=19	=19
8a	san-
8a}	-gen,}
8r	.
16r	.
{16a	{da
=20	=20
8.b	hab'
16b	ich
8.cc#	ihr
16cc#	ge-
=21	=21
8ee	-stan-
8dd}	-den}
8r	.
16r	.
{16dd	{mein
=22	=22
8.dd	Seh-
16dd	-nen
8.ee	und
16ee	Ver-
=23	=23
8ggn	-lan-
8ff#}	-gen.}
4r	.
*-	*-
